X:1314
T:Mad Reel
C:R. J. Peach
R:Reel
Z:RJP
F:http://abc.musicaviva.com/tunes/peach-r-j/mad-reel.abc
%Posted July 9th 2000 at abcusers by R. J. Peach
M:4/4
L:1/8  % quaver
Q:1/4=180
K:C  % key is Am
[M:5/4]
P:A
V:1  name="Fiddle" staves=1
|:e2 ^de ce A2 e2| de dB GB d2 d^d| e2 ^de ce A2 e2| de dB GB A2 AA::
P:B
[M: 4/4]
DE FG AF DF| G2 GE CE GE| DE FG Ad ^cd| cA GE D2 D2::
P:C
d2 d^c dA FA| cB cd  c/2B/2A GE| DE FG Ad ^cd| c/2B/2A GE D2 D2::
P:D
Dz [d2F2] [c2E2] [B2D2]| [A2D2] [AD-][BD] cd/2c/2 A2| C2 c2 B2 A2| GA BG
cd/2c/2 A2:|
W:
W:
W:  From Musica Viva - http://www.musicaviva.com
W:  the Internet center for free sheet music downloads.
